X: 1
T: This Is My Love, Do You Like Her?
R: jig
M: 6/8
L: 1/8
K: Emin
|:"Em"E2E EDB,|"G"G3 GAB|"D"A2A ABA|d3 d2e|
d2B GAB|A2F DEF|"G"G2E "D"FED|"Em"E3 E3:|
|:"Em"e2e edB|"D"d3 def|"Em"e2e edB|"D"d3 d2e|
d2B GAB|A2F DEF|"G"G2E "D"FED|"Em"E3 E3:|


Tune 6	Setting 12355

